!!!!SEGMENT: Fss3001-Lultimo_di_de_maggio.krn
!!!id: Fss3001
!!!AGN: Frottola
!!!voices: 4
!!!COM: Sebastiano Festa
!!!OTL: L'ultimo dì de maggio
**kern	**kern	**kern	**kern
*part4	*part3	*part2	*part1
*staff4	*staff3	*staff2	*staff1
*I"Bassus	*I"Tenor	*I"Altus	*I"Superius
*I'B	*I'T	*I'A	*I'S
*clefF4	*clefGv2	*clefGv2	*clefG2
*k[b-]	*k[b-]	*k[b-]	*k[b-]
*F:	*F:	*F:	*F:
*M2/1	*M2/1	*M2/1	*M2/1
*met(C|)	*met(C|)	*met(C|)	*met(C|)
=1	=1	=1	=1
0r	2F	0r	0r
.	4F	.	.
.	4F	.	.
.	2G	.	.
.	2B-y	.	.
=2	=2	=2	=2
1r	2.A	1r	1r
.	4G	.	.
2r	2F	2r	2r
2F	2c	2f	2a
=3	=3	=3	=3
2BB-y	2d	2f	2b-y
2F	2c	2f	2a
[1C	2c	4e	2g
.	.	4d	.
.	4B-y	4c	[2f
.	4A	4B-y	.
=4	=4	=4	=4
1C]	1G	1c	2f]
.	.	.	2e
1F	1F	1A	1f
=5	=5	=5	=5
2F	2f	2c	2a
2F	2f	2c	2a
2G	2d	2g	2b-y
2A	2c	4e	2cc
.	.	4f	.
=6	=6	=6	=6
2G	2d	1g	2b-y
2C	2e	.	2cc
1F	2.f	1c	2a
.	.	.	[2cc
.	4e	.	.
=7	=7	=7	=7
1G	1d	1g	2cc]
.	.	.	2bnXi
1A	1c	1e	1cc
=8	=8	=8	=8
2F	2c	2f	2a
2F	2c	2f	2a
2BB-y	2.d	2.f	2b-y
4BB-y	.	.	4b-y
4BB-y	4d	4f	4b-y
=9	=9	=9	=9
2F	2c	2f	2a
2G	2B-y	2d	2g
2E-X	2B-y	2e-X	2g
2F	2A	2c	2f
=10	=10	=10	=10
1C	1G	1c	2f
.	.	.	2e
1F	1F	1c	1f
=11	=11	=11	=11
1F	1A	2.c	1f
.	.	4d	.
2C	2c	2e	2g
2C	2c	2e	2g
=12	=12	=12	=12
2F	2c	2f	2a
2F	2c	2F	2a
2D	2.d	2.A	2f
4D	.	.	4f
4D	4d	4A	4f
=13	=13	=13	=13
2G	2d	2B-y	2b-y
2G	2d	2B-y	2b-y
[1C	2e	[1c	[1g
.	[2f	.	.
=14	=14	=14	=14
1C]	2f]	1c]	1g]
.	2e	.	.
1F	1f	1c	1f
=15	=15	=15	=15
2.B-y	2.d	0r	0r
4A	4c	.	.
2G	2B-y	.	.
2F	2A	.	.
=16	=16	=16	=16
2G	2B-y	0r	0r
2A	2c	.	.
2F	2A	.	.
2F	2A	.	.
=17	=17	=17	=17
1F	1c	1f	1a
2F	1c	2f	2a
2F	.	2f	2a
=18	=18	=18	=18
1BB-y	2.d	1f	2.b-y
.	4c	.	4a
2E-X	2B-y	2e-X	2g
2F	2A	[2c	2f
=19	=19	=19	=19
2C	2G	2c]	2e
2D	2F	2B-y	1f
1C	1G	1c	.
.	.	.	2e
=20	=20	=20	=20
0FF	0F	0c	0f
=21	=21	=21	=21
2.F	2.A	2.c	2.f
4F	4A	4c	4f
2BB-y	2B-y	2d	2f
2BB-y	2B-y	2d	2f
=22	=22	=22	=22
2F	2A	2c	2f
2F	2A	2d	2f
1E-X	1B-y	1e-X	1g
=23	=23	=23	=23
2E-i	2B-y	2e-i	2g
2F	2A	2c	2f
2C	2G	2c	2e
2D	2F	2B-y	[2f
=24	=24	=24	=24
1C	1G	1c	2f]
.	.	.	2e
1F	1F	1c	1f
=25	=25	=25	=25
0r	0r	1f	1a
.	.	2e	2g
.	.	2c	2a
=26	=26	=26	=26
0r	0r	2d	2b-y
.	.	2d	2b-y
.	.	2e	2g
.	.	2e	2g
=27	=27	=27	=27
1F	1f	1c	1a
2F	2f	2c	2a
2C	2e	[2g	2cc
=28	=28	=28	=28
2G	2d	2g]	2b-y
2A	2c	2f	1cc
1G	1d	2g	.
.	.	2g	2bnXi
=29	=29	=29	=29
2C	1c	2e	2cc
2F	.	2f	2a
2BB-y	2d	2f	2b-y
2F	[2f	2c	2a
=30	=30	=30	=30
0C	2f]	0c	0g
.	4e	.	.
.	4d	.	.
.	1e	.	.
=31	=31	=31	=31
1F	1f	1c	1f
2r	2r	2r	2r
2F	2c	2f	2a
=32	=32	=32	=32
2G	2B-y	2d	2b-y
2G	2B-y	2e	2b-y
2F	2c	2f	2a
2F	2c	2f	2a
=33	=33	=33	=33
2F	2A	2c	1.f
2BB-y	2B-y	2d	.
1C	1G	1c	.
.	.	.	4e
.	.	.	4d
=34	=34	=34	=34
1C	1G	1c	2e
.	.	.	2f
1FF	1F	1A	1f
=35	=35	=35	=35
1FF	1F	1A	[0fl
1D	2r	[1A	.
.	[2c	.	.
=36	=36	=36	=36
1F	2c]	2A]	0f_
.	1B-y	2B-y	.
1F	.	2c	.
.	2A	2c	.
=37	=37	=37	=37
1BB-y	1B-y	2d	0f_
.	.	1B-y	.
1BB-y	1d	.	.
.	.	4A	.
.	.	4G	.
=38	=38	=38	=38
2F	2c	2A	0f_
2F	2B-y	2B-y	.
2F	2c	2B-y	.
2F	2c	2A	.
=39	=39	=39	=39
0BB-y	1.B-y	1B-y	0f_
.	.	1d	.
.	4A	.	.
.	4G	.	.
=40	=40	=40	=40
00Fl	00Al	00cl	00f]
==	==	==	==
*-	*-	*-	*-
!!!system-decoration: [*]
!!!RDF**kern: i = editorial accidental
!!!RDF**kern: l = terminal long
!!!ENC: Benjamin Ory
!!!END: 2024/10/6
!!!EED: Benjamin Ory
!!!EEV: 2024/10/06
!!!YEC: Copyright 2024 Benjamin Ory, All Rights Reserved
!!!ONB: Translated from MusicXML on 2024/10/06